images/max-light.svg

<svg fill="none" height="57" viewBox="0 0 34 57" width="34" xmlns="http://www.w3.org/2000/svg" xmlns:xlink="http://www.w3.org/1999/xlink"><filter id="a" color-interpolation-filters="sRGB" filterUnits="userSpaceOnUse" height="56.929" width="35" x="-1" y=".035515"><feFlood flood-opacity="0" result="BackgroundImageFix"/><feBlend in="SourceGraphic" in2="BackgroundImageFix" mode="normal" result="shape"/><feColorMatrix in="SourceAlpha" result="hardAlpha" type="matrix" values="0 0 0 0 0 0 0 0 0 0 0 0 0 0 0 0 0 0 127 0"/><feOffset/><feGaussianBlur stdDeviation="10"/><feComposite in2="hardAlpha" k2="-1" k3="1" operator="arithmetic"/><feColorMatrix type="matrix" values="0 0 0 0 1 0 0 0 0 0.69 0 0 0 0 0.225 0 0 0 0.4 0"/><feBlend in2="shape" mode="normal" result="effect1_innerShadow"/><feColorMatrix in="SourceAlpha" result="hardAlpha" type="matrix" values="0 0 0 0 0 0 0 0 0 0 0 0 0 0 0 0 0 0 127 0"/><feOffset dx="-1" dy="1"/><feGaussianBlur stdDeviation=".5"/><feComposite in2="hardAlpha" k2="-1" k3="1" operator="arithmetic"/><feColorMatrix type="matrix" values="0 0 0 0 1 0 0 0 0 1 0 0 0 0 1 0 0 0 0.5 0"/><feBlend in2="effect1_innerShadow" mode="normal" result="effect2_innerShadow"/></filter><filter id="b" color-interpolation-filters="sRGB" filterUnits="userSpaceOnUse" height="57.913" width="21" x="15" y="1.087"><feFlood flood-opacity="0" result="BackgroundImageFix"/><feBlend in="SourceGraphic" in2="BackgroundImageFix" mode="normal" result="shape"/><feColorMatrix in="SourceAlpha" result="hardAlpha" type="matrix" values="0 0 0 0 0 0 0 0 0 0 0 0 0 0 0 0 0 0 127 0"/><feOffset/><feGaussianBlur stdDeviation="10"/><feComposite in2="hardAlpha" k2="-1" k3="1" operator="arithmetic"/><feColorMatrix type="matrix" values="0 0 0 0 1 0 0 0 0 0.69 0 0 0 0 0.225 0 0 0 0.4 0"/><feBlend in2="shape" mode="normal" result="effect1_innerShadow"/><feColorMatrix in="SourceAlpha" result="hardAlpha" type="matrix" values="0 0 0 0 0 0 0 0 0 0 0 0 0 0 0 0 0 0 127 0"/><feOffset dx="-1" dy="1"/><feGaussianBlur stdDeviation=".5"/><feComposite in2="hardAlpha" k2="-1" k3="1" operator="arithmetic"/><feColorMatrix type="matrix" values="0 0 0 0 1 0 0 0 0 1 0 0 0 0 1 0 0 0 0.5 0"/><feBlend in2="effect1_innerShadow" mode="normal" result="effect2_innerShadow"/><feGaussianBlur result="effect3_foregroundBlur" stdDeviation="1"/></filter><filter id="c" color-interpolation-filters="sRGB" filterUnits="userSpaceOnUse" height="26.929" width="37" x="-1" y="-.964485"><feFlood flood-opacity="0" result="BackgroundImageFix"/><feBlend in="SourceGraphic" in2="BackgroundImageFix" mode="normal" result="shape"/><feColorMatrix in="SourceAlpha" result="hardAlpha" type="matrix" values="0 0 0 0 0 0 0 0 0 0 0 0 0 0 0 0 0 0 127 0"/><feOffset dx="2" dy="2"/><feGaussianBlur stdDeviation="8"/><feComposite in2="hardAlpha" k2="-1" k3="1" operator="arithmetic"/><feColorMatrix type="matrix" values="0 0 0 0 1 0 0 0 0 0.72 0 0 0 0 3.33786e-08 0 0 0 0.2 0"/><feBlend in2="shape" mode="normal" result="effect1_innerShadow"/><feColorMatrix in="SourceAlpha" result="hardAlpha" type="matrix" values="0 0 0 0 0 0 0 0 0 0 0 0 0 0 0 0 0 0 127 0"/><feOffset dx="-2"/><feGaussianBlur stdDeviation=".5"/><feComposite in2="hardAlpha" k2="-1" k3="1" operator="arithmetic"/><feColorMatrix type="matrix" values="0 0 0 0 1 0 0 0 0 1 0 0 0 0 1 0 0 0 0.9 0"/><feBlend in2="effect1_innerShadow" mode="normal" result="effect2_innerShadow"/><feGaussianBlur result="effect3_foregroundBlur" stdDeviation=".5"/></filter><radialGradient id="d" cx="0" cy="0" gradientTransform="matrix(15.44673845 39.50002984 -23.15515779 9.05497205 1.5 17.5)" gradientUnits="userSpaceOnUse" r="1"><stop offset="0" stop-color="#fffffe"/><stop offset="1" stop-color="#fff6e4"/></radialGradient><radialGradient id="e" cx="0" cy="0" gradientTransform="matrix(0 70.5 -20.6638 0 25 6)" gradientUnits="userSpaceOnUse" r="1"><stop offset="0" stop-color="#ffeab4"/><stop offset="1" stop-color="#ffe7b4"/></radialGradient><radialGradient id="f" cx="0" cy="0" gradientTransform="matrix(-40.99971816 -8.4503428 184.2530617 -893.96652639 30.4998 17.9502)" gradientUnits="userSpaceOnUse" r="1"><stop offset=".0364583" stop-color="#fffaed"/><stop offset="1" stop-color="#ffedc9"/></radialGradient><mask id="g" height="56" maskUnits="userSpaceOnUse" width="34" x="0" y="0"><path d="m0 13.9767c0-1.2459.580524-2.4206 1.5702-3.1774l13-9.941217c1.4342-1.096759 3.4254-1.096758 4.8596 0l13 9.941217c.9897.7568 1.5702 1.9315 1.5702 3.1774v28.0466c0 1.2459-.5805 2.4206-1.5702 3.1774l-13 9.9412c-1.4342 1.0968-3.4254 1.0968-4.8596 0l-13-9.9412c-.989676-.7568-1.5702-1.9315-1.5702-3.1774z" fill="#ff8080" opacity=".92"/></mask><g mask="url(#g)"><g filter="url(#a)"><path d="m0 13.9767c0-1.2459.580524-2.4206 1.5702-3.1774l13-9.941217c1.4342-1.096759 3.4254-1.096758 4.8596 0l13 9.941217c.9897.7568 1.5702 1.9315 1.5702 3.1774v28.0466c0 1.2459-.5805 2.4206-1.5702 3.1774l-13 9.9412c-1.4342 1.0968-3.4254 1.0968-4.8596 0l-13-9.9412c-.989676-.7568-1.5702-1.9315-1.5702-3.1774z" fill="url(#d)"/></g><g filter="url(#b)"><path d="m34 42.0233v-28.0466c0-1.2459-.5805-2.4206-1.5702-3.1774l-9-6.88239c-2.632-2.01275-6.4298-.136-6.4298 3.17743v49.90566l15.4298-11.7993c.9897-.7568 1.5702-1.9315 1.5702-3.1774z" fill="url(#e)" fill-opacity=".8"/></g><g filter="url(#c)"><path d="m14.5702.858083-14.5702 11.141917 14.5702 11.1419c1.4342 1.0968 3.4254 1.0968 4.8596 0l14.5702-11.1419-14.5702-11.141917c-1.4342-1.096758-3.4254-1.096759-4.8596 0z" fill="url(#f)" fill-opacity=".8"/></g></g></svg>

<svg width="34" height="57" viewBox="0 0 34 57" fill="none" xmlns="http://www.w3.org/2000/svg">
<mask id="mask0" mask-type="alpha" maskUnits="userSpaceOnUse" x="0" y="0" width="34" height="56">
<path opacity="0.92" d="M0 13.9767C0 12.7308 0.580524 11.5561 1.5702 10.7993L14.5702 0.858083C16.0044 -0.238676 17.9956 -0.238675 19.4298 0.858083L32.4298 10.7993C33.4195 11.5561 34 12.7308 34 13.9767V42.0233C34 43.2692 33.4195 44.4439 32.4298 45.2007L19.4298 55.1419C17.9956 56.2387 16.0044 56.2387 14.5702 55.1419L1.5702 45.2007C0.580524 44.4439 0 43.2692 0 42.0233V13.9767Z" fill="#FF8080"/>
</mask>
<g mask="url(#mask0)">
<g filter="url(#filter0_ii)">
<path d="M0 13.9767C0 12.7308 0.580524 11.5561 1.5702 10.7993L14.5702 0.858083C16.0044 -0.238676 17.9956 -0.238675 19.4298 0.858083L32.4298 10.7993C33.4195 11.5561 34 12.7308 34 13.9767V42.0233C34 43.2692 33.4195 44.4439 32.4298 45.2007L19.4298 55.1419C17.9956 56.2387 16.0044 56.2387 14.5702 55.1419L1.5702 45.2007C0.580524 44.4439 0 43.2692 0 42.0233V13.9767Z" fill="url(#paint0_radial)"/>
</g>
<g filter="url(#filter1_iif)">
<path d="M34 42.0233V13.9767C34 12.7308 33.4195 11.5561 32.4298 10.7993L23.4298 3.91691C20.7978 1.90416 17 3.78091 17 7.09434V57L32.4298 45.2007C33.4195 44.4439 34 43.2692 34 42.0233Z" fill="url(#paint1_radial)" fill-opacity="0.8"/>
</g>
<g filter="url(#filter2_iif)">
<path d="M14.5702 0.858083L0 12L14.5702 23.1419C16.0044 24.2387 17.9956 24.2387 19.4298 23.1419L34 12L19.4298 0.858083C17.9956 -0.238675 16.0044 -0.238676 14.5702 0.858083Z" fill="url(#paint2_radial)" fill-opacity="0.8"/>
</g>
</g>
<defs>
<filter id="filter0_ii" x="-1" y="0.0355225" width="35" height="56.929" filterUnits="userSpaceOnUse" color-interpolation-filters="sRGB">
<feFlood flood-opacity="0" result="BackgroundImageFix"/>
<feBlend mode="normal" in="SourceGraphic" in2="BackgroundImageFix" result="shape"/>
<feColorMatrix in="SourceAlpha" type="matrix" values="0 0 0 0 0 0 0 0 0 0 0 0 0 0 0 0 0 0 127 0" result="hardAlpha"/>
<feOffset/>
<feGaussianBlur stdDeviation="10"/>
<feComposite in2="hardAlpha" operator="arithmetic" k2="-1" k3="1"/>
<feColorMatrix type="matrix" values="0 0 0 0 1 0 0 0 0 0.69 0 0 0 0 0.225 0 0 0 0.4 0"/>
<feBlend mode="normal" in2="shape" result="effect1_innerShadow"/>
<feColorMatrix in="SourceAlpha" type="matrix" values="0 0 0 0 0 0 0 0 0 0 0 0 0 0 0 0 0 0 127 0" result="hardAlpha"/>
<feOffset dx="-1" dy="1"/>
<feGaussianBlur stdDeviation="0.5"/>
<feComposite in2="hardAlpha" operator="arithmetic" k2="-1" k3="1"/>
<feColorMatrix type="matrix" values="0 0 0 0 1 0 0 0 0 1 0 0 0 0 1 0 0 0 0.5 0"/>
<feBlend mode="normal" in2="effect1_innerShadow" result="effect2_innerShadow"/>
</filter>
<filter id="filter1_iif" x="15" y="1.08698" width="21" height="57.913" filterUnits="userSpaceOnUse" color-interpolation-filters="sRGB">
<feFlood flood-opacity="0" result="BackgroundImageFix"/>
<feBlend mode="normal" in="SourceGraphic" in2="BackgroundImageFix" result="shape"/>
<feColorMatrix in="SourceAlpha" type="matrix" values="0 0 0 0 0 0 0 0 0 0 0 0 0 0 0 0 0 0 127 0" result="hardAlpha"/>
<feOffset/>
<feGaussianBlur stdDeviation="10"/>
<feComposite in2="hardAlpha" operator="arithmetic" k2="-1" k3="1"/>
<feColorMatrix type="matrix" values="0 0 0 0 1 0 0 0 0 0.69 0 0 0 0 0.225 0 0 0 0.4 0"/>
<feBlend mode="normal" in2="shape" result="effect1_innerShadow"/>
<feColorMatrix in="SourceAlpha" type="matrix" values="0 0 0 0 0 0 0 0 0 0 0 0 0 0 0 0 0 0 127 0" result="hardAlpha"/>
<feOffset dx="-1" dy="1"/>
<feGaussianBlur stdDeviation="0.5"/>
<feComposite in2="hardAlpha" operator="arithmetic" k2="-1" k3="1"/>
<feColorMatrix type="matrix" values="0 0 0 0 1 0 0 0 0 1 0 0 0 0 1 0 0 0 0.5 0"/>
<feBlend mode="normal" in2="effect1_innerShadow" result="effect2_innerShadow"/>
<feGaussianBlur stdDeviation="1" result="effect3_foregroundBlur"/>
</filter>
<filter id="filter2_iif" x="-1" y="-0.964478" width="37" height="26.929" filterUnits="userSpaceOnUse" color-interpolation-filters="sRGB">
<feFlood flood-opacity="0" result="BackgroundImageFix"/>
<feBlend mode="normal" in="SourceGraphic" in2="BackgroundImageFix" result="shape"/>
<feColorMatrix in="SourceAlpha" type="matrix" values="0 0 0 0 0 0 0 0 0 0 0 0 0 0 0 0 0 0 127 0" result="hardAlpha"/>
<feOffset dx="2" dy="2"/>
<feGaussianBlur stdDeviation="8"/>
<feComposite in2="hardAlpha" operator="arithmetic" k2="-1" k3="1"/>
<feColorMatrix type="matrix" values="0 0 0 0 1 0 0 0 0 0.72 0 0 0 0 3.33786e-08 0 0 0 0.2 0"/>
<feBlend mode="normal" in2="shape" result="effect1_innerShadow"/>
<feColorMatrix in="SourceAlpha" type="matrix" values="0 0 0 0 0 0 0 0 0 0 0 0 0 0 0 0 0 0 127 0" result="hardAlpha"/>
<feOffset dx="-2"/>
<feGaussianBlur stdDeviation="0.5"/>
<feComposite in2="hardAlpha" operator="arithmetic" k2="-1" k3="1"/>
<feColorMatrix type="matrix" values="0 0 0 0 1 0 0 0 0 1 0 0 0 0 1 0 0 0 0.9 0"/>
<feBlend mode="normal" in2="effect1_innerShadow" result="effect2_innerShadow"/>
<feGaussianBlur stdDeviation="0.5" result="effect3_foregroundBlur"/>
</filter>
<radialGradient id="paint0_radial" cx="0" cy="0" r="1" gradientUnits="userSpaceOnUse" gradientTransform="translate(1.5 17.5) rotate(68.6417) scale(42.4129 24.8627)">
<stop stop-color="#FFFFFE"/>
<stop offset="1" stop-color="#FFF6E4"/>
</radialGradient>
<radialGradient id="paint1_radial" cx="0" cy="0" r="1" gradientUnits="userSpaceOnUse" gradientTransform="translate(25 6) rotate(90) scale(70.5 20.6638)">
<stop stop-color="#FFEAB4"/>
<stop offset="1" stop-color="#FFE7B4"/>
</radialGradient>
<radialGradient id="paint2_radial" cx="0" cy="0" r="1" gradientUnits="userSpaceOnUse" gradientTransform="translate(30.4998 17.9502) rotate(-168.354) scale(41.8615 912.757)">
<stop offset="0.0364583" stop-color="#FFFAED"/>
<stop offset="1" stop-color="#FFEDC9"/>
</radialGradient>
</defs>
</svg>
